src/asset/24px/help-alt.svg

<svg width="24" height="24" viewBox="0 0 24 24" fill="none" xmlns="http://www.w3.org/2000/svg">
<path fill-rule="evenodd" clip-rule="evenodd" d="M12 3.99973C7.58172 3.99973 4 7.58145 4 11.9997C4 16.418 7.58172 19.9997 12 19.9997C16.4183 19.9997 20 16.418 20 11.9997C20 7.58145 16.4183 3.99973 12 3.99973ZM2 11.9997C2 6.47688 6.47715 1.99973 12 1.99973C17.5228 1.99973 22 6.47688 22 11.9997C22 17.5226 17.5228 21.9997 12 21.9997C6.47715 21.9997 2 17.5226 2 11.9997Z" fill="#808080"/>
<path fill-rule="evenodd" clip-rule="evenodd" d="M9.40184 9.89051C9.45965 9.9253 9.52159 9.94677 9.58483 9.95631C9.68069 9.97075 9.77954 9.95775 9.87156 9.92204C9.9557 9.8894 10.0341 9.83777 10.0993 9.77078C10.2223 9.64444 10.3552 9.53289 10.4981 9.43616L10.5009 9.4342C10.5332 9.41246 10.5659 9.39146 10.5991 9.37121C10.6024 9.36921 10.6057 9.36721 10.609 9.36522C10.6426 9.34494 10.6767 9.32542 10.7114 9.30667C10.7868 9.26483 10.8644 9.22729 10.9441 9.19404C10.9521 9.19071 10.9601 9.18741 10.9681 9.18417C11.2699 9.06213 11.6015 9.00111 11.9628 9.00111C12.0503 9.00111 12.1347 9.00474 12.2158 9.012C12.5855 9.04508 12.8886 9.1535 13.1248 9.33722C13.2909 9.45647 13.4107 9.60103 13.4842 9.77093C13.4868 9.77705 13.4894 9.78321 13.492 9.78941C13.4969 9.80152 13.5016 9.81375 13.5061 9.82611C13.5188 9.86108 13.5297 9.89706 13.5387 9.93405C13.5448 9.95937 13.5501 9.98516 13.5546 10.0114C13.565 10.073 13.5706 10.1371 13.5716 10.2038C13.5716 10.2062 13.5716 10.2087 13.5716 10.2112C13.5717 10.2152 13.5717 10.2193 13.5717 10.2233C13.5717 10.3747 13.5457 10.5178 13.4938 10.6525C13.4549 10.7535 13.4014 10.8498 13.3333 10.9414C13.3071 10.9773 13.2781 11.0147 13.2463 11.0537C13.2437 11.0569 13.2411 11.0601 13.2385 11.0633C13.1813 11.133 13.1153 11.2078 13.0406 11.2875C13.0265 11.3026 13.012 11.3179 12.9972 11.3334C12.888 11.4476 12.7617 11.5716 12.6182 11.7053C12.5352 11.7829 12.4557 11.8593 12.3799 11.9344C12.3703 11.9439 12.3608 11.9534 12.3513 11.9629C12.3147 11.9994 12.2789 12.0356 12.2441 12.0716C12.2363 12.0796 12.2286 12.0876 12.2209 12.0956C12.2036 12.1135 12.1866 12.1313 12.1699 12.149C12.1601 12.1593 12.1504 12.1696 12.1408 12.1799C12.0784 12.2464 12.0191 12.312 11.9628 12.3765C11.8853 12.4652 11.8136 12.5519 11.7477 12.6367C11.691 12.7096 11.6385 12.7811 11.5903 12.8511C11.572 12.8789 11.5544 12.9072 11.5376 12.9362C11.5318 12.9462 11.526 12.9562 11.5204 12.9663C11.408 13.1683 11.3303 13.3982 11.2874 13.656C11.2868 13.6596 11.2862 13.6633 11.2856 13.6669C11.2505 13.8831 11.388 14.0696 11.584 14.1376C11.6353 14.1553 11.6905 14.165 11.7477 14.165H12.9972C13.0565 14.165 13.1128 14.1544 13.1655 14.1351C13.2227 14.1142 13.2757 14.083 13.3238 14.0443C13.3349 14.0353 13.3458 14.0259 13.3564 14.0161C13.3605 14.0123 13.3645 14.0085 13.3685 14.0046C13.4605 13.9156 13.531 13.7979 13.5739 13.6732C13.6157 13.5518 13.6745 13.4408 13.7505 13.34C13.8016 13.2691 13.8617 13.1936 13.931 13.1134L13.9324 13.1118C14.0919 12.9273 14.2994 12.7182 14.5549 12.4844C14.6907 12.3587 14.8149 12.2399 14.9275 12.128L14.9288 12.1267C14.9323 12.1231 14.9359 12.1196 14.9395 12.116C14.9958 12.0598 15.0492 12.0054 15.0997 11.9528C15.1725 11.8768 15.2393 11.8045 15.2998 11.7358C15.4984 11.5118 15.6623 11.2419 15.7914 10.9261C15.8845 10.7147 15.9465 10.4804 15.9772 10.2233C15.9924 10.0965 16 9.96408 16 9.82611C16 8.94 15.6524 8.24741 14.9572 7.74834C14.831 7.65648 14.6972 7.57307 14.5556 7.49812C14.5289 7.48401 14.502 7.4702 14.4747 7.45668C13.8613 7.15204 13.1084 6.99973 12.216 6.99973C12.1306 6.99973 12.0462 7.0011 11.9628 7.00384C11.8556 7.00737 11.7501 7.01316 11.6463 7.02121C11.4545 7.03608 11.2683 7.05868 11.0877 7.08899C10.5963 7.17146 10.1463 7.31107 9.73774 7.50783C9.73155 7.51081 9.72536 7.51381 9.71918 7.51682C9.70723 7.52265 9.69531 7.52852 9.68343 7.53445C9.59509 7.5791 9.50901 7.62608 9.42519 7.67537C9.11898 7.85546 8.84294 8.06648 8.59705 8.30843C8.49328 8.41054 8.39488 8.51817 8.30185 8.63131C8.12303 8.84877 8.19915 9.16679 8.44038 9.31195L9.40184 9.89051ZM13.4078 15.6469C13.3994 15.6387 13.391 15.6305 13.3825 15.6225C13.3567 15.5983 13.3303 15.5753 13.3032 15.5534C13.2092 15.4775 13.1072 15.4159 12.9972 15.3684C12.8137 15.2893 12.6079 15.2497 12.3799 15.2497C12.1457 15.2497 11.9349 15.2915 11.7477 15.375C11.6247 15.4298 11.5118 15.5027 11.409 15.5936L11.4076 15.5949C11.3887 15.6116 11.3702 15.629 11.352 15.6469C11.0838 15.9016 10.9497 16.2224 10.9497 16.6094C10.9497 16.9965 11.0838 17.3275 11.352 17.6025C11.3736 17.6231 11.3956 17.6429 11.418 17.6619C11.4322 17.6739 11.4466 17.6857 11.4611 17.6971C11.5507 17.7673 11.6462 17.8254 11.7477 17.8712C11.9375 17.9569 12.1483 17.9997 12.3799 17.9997C12.6074 17.9997 12.8131 17.9584 12.9972 17.8758C13.1032 17.8282 13.2021 17.7669 13.2937 17.6918C13.3079 17.6802 13.322 17.6682 13.3359 17.6559C13.3552 17.6387 13.3742 17.6209 13.3929 17.6025C13.671 17.3275 13.8101 16.9965 13.8101 16.6094C13.8101 16.2224 13.676 15.9016 13.4078 15.6469Z" fill="#808080"/>
</svg>

<svg width="24" height="24" fill="none" xmlns="http://www.w3.org/2000/svg"><path fill-rule="evenodd" clip-rule="evenodd" d="M12 4a8 8 0 100 16 8 8 0 000-16zM2 12C2 6.477 6.477 2 12 2s10 4.477 10 10-4.477 10-10 10S2 17.523 2 12z" fill="gray"/><path fill-rule="evenodd" clip-rule="evenodd" d="M9.402 9.89c.058.035.12.057.183.066a.563.563 0 00.287-.034.645.645 0 00.227-.151c.123-.127.256-.238.4-.335l.002-.002c.032-.022.065-.043.098-.063l.01-.006a2.475 2.475 0 01.36-.18A2.63 2.63 0 0111.962 9c.087 0 .172.004.253.011.37.033.673.141.909.325a1.04 1.04 0 01.414.597 1.186 1.186 0 01.033.27v.019a1.183 1.183 0 01-.239.718 2.658 2.658 0 01-.087.113l-.008.01a4.575 4.575 0 01-.24.27c-.11.114-.236.238-.38.371-.083.078-.162.154-.238.23l-.029.028a8.349 8.349 0 00-.107.109l-.023.024a6.145 6.145 0 00-.258.28 5.883 5.883 0 00-.373.475 1.752 1.752 0 00-.052.085l-.018.03c-.112.202-.19.432-.233.69l-.001.01c-.035.217.102.404.298.472a.502.502 0 00.164.027h1.25c.059 0 .115-.01.168-.03a.56.56 0 00.202-.13.848.848 0 00.206-.332c.042-.121.1-.232.177-.333.05-.07.11-.146.18-.227l.001-.001c.16-.185.367-.394.623-.628.136-.125.26-.244.373-.356v-.001l.011-.011a10.775 10.775 0 00.36-.38 2.81 2.81 0 00.492-.81c.093-.211.155-.446.186-.703.015-.127.023-.259.023-.397 0-.886-.348-1.579-1.043-2.078a3.322 3.322 0 00-.482-.291C13.86 7.152 13.108 7 12.216 7a7.711 7.711 0 00-.57.021 6.33 6.33 0 00-.558.068 5.003 5.003 0 00-1.405.445 4.238 4.238 0 00-1.382 1.097c-.178.218-.102.536.14.68l.96.58zm4.006 5.757l-.025-.024a1.314 1.314 0 00-.385-.254 1.545 1.545 0 00-.618-.12c-.234 0-.445.042-.632.126a1.32 1.32 0 00-.339.219h-.001a1.271 1.271 0 00-.458 1.014 1.371 1.371 0 00.468 1.054l.043.035c.09.07.185.128.287.174.19.086.4.129.632.129.227 0 .433-.042.617-.124a1.317 1.317 0 00.396-.274c.278-.274.417-.605.417-.993 0-.387-.134-.707-.402-.962z" fill="gray"/></svg>
